X:1
T:Ernan, LM
T:Ernan, LM
T:Lowell Mason, 1850
T:Public Domain Courtesy of the Cyber Hymnal™
C:Lowell Mason, 1850
Z:Public Domain
Z:Courtesy of the Cyber Hymnal™
%%score ( 1 2 ) ( 3 4 )
L:1/8
Q:1/4=145
M:4/4
K:Bb
V:1 treble 
V:2 treble 
V:3 bass 
V:4 bass 
V:1
 [DF]4 [B,D]2 [CE]2 | [DF]4 [FB]4 | (B2 A2) (G2 A2) | [DB]8 | [EG]4 [EG]2 [EG]2 | %5
 [DF]4 ([CF]2 [FA]2) | (c2 B2) ([FA]2 [=EG]2) | F8 | [DF]4 [B,D]2 [CE]2 | [DF]4 [FB]4 | %10
 (B2 A2) (G2 A2) | [DB]8 | [EG]4 [EG]2 [EG]2 | F4 ([DB]2 [Fc]2) | ([Fd]2 [Ec]2) ([DB]2 [CA]2) | %15
 [DB]8 |] %16
V:2
 x8 | x8 | E4 E4 | x8 | x8 | x8 | F4 x4 | F8 | x8 | x8 | E4 E4 | x8 | x8 | F4 x4 | x8 | x8 |] %16
V:3
 [B,,B,]4 [B,,B,]2 [B,,B,]2 | [B,,B,]4 [B,,D]4 | [F,C]4 [F,C]4 | [B,,B,]8 | %4
 [E,B,]4 [E,B,]2 [E,B,]2 | [B,,B,]4 (A,2 C2) | ([A,,C]2 [B,,D]2) (C2 B,2) | [F,A,]8 | %8
 [B,,B,]4 [B,,B,]2 [B,,B,]2 | [B,,B,]4 [B,,D]4 | [F,C]4 [F,C]4 | [B,,B,]8 | %12
 [E,B,]4 [E,B,]2 [E,B,]2 | [D,B,]4 [B,,F,]4 | F,4 F,4 | [B,,F,]8 |] %16
V:4
 x8 | x8 | x8 | x8 | x8 | x4 F,4 | x4 C,4 | x8 | x8 | x8 | x8 | x8 | x8 | x8 | F,4 F,4 | x8 |] %16

